X: 185
T: Schaefer's Waltz
B: australian dance tunes
M:3/4
L:1/8
R: Waltz
Q: 1/4=100
K:G
V:1 
g2||f4 A2|c4 e2|d4 G2|B4 d2|c4 B2|A4 G2|F4 A2|A4 d2|!
f4 e2|d4 B2|d4 c2|B4 G2|A2 A2 A2|A2 G2 A2|G2 G2 G2|G4 BB|!
B2 e3 d|c4 A2|c6|A6|f4 e2|d4 c2|B6-|B6|!
e2 e2 e2|e2 f2 g2|d4 B2|d6|A2 B2 c2|B4 A2|G6-|G4 D>G|!
B4 e2|d4 D>G|B4 e2|d6|g2 f2 e2|d4 c2|B6|B6|!
c2 c2 c2|c2 d2 e2|d4 B2|d6|A2 B2 c2|B4 A2|G6|G6||
% abcbook-tune_id 62a0785082e2afa6127917c3


% abcbook-boost 0
% abcbook-tablature 
% abcbook-transpose 
% abcbook-lastupdated 1654683750232
% abcbook-soundfonts 
% abcbook-repeats 1


